X: 20742
T: A Soldier and a Sailor
%R: jig
B: James Oswald "The Caledonian Pocket Companion" v.2 p.74 #2
Z: 2019 John Chambers <jc:trillian.mit.edu>
M: 6/8
L: 1/8
K: D
"_Brisk"A |\
d2d def | Td3 A2A | f2f fga | Tf3 d2e | fga agf | b3 B2c | def fed | a3 A2B |
cde dcB | A3 zz :: e | efe e2f | g3 g2a | b=c'b a2g | Tf3 f2g | a>ba g2f |
e3 fga | bag fed | T^c3 A2a | bc'd' d'2c' | d'3 zHz g | fga f2e | d3 z2 :|


